X: 1131
M: 6/8
L: 1/8
K: F
c/B/ |\
f/g/ |\
a2f g2e | fef cBA | Bcd cfA | AGG G2f/g/ |\
a2f g2e | fed gfe | agf efd | cfe dcB |
cast off right and left to place,
cross hands or swing four to place.

